FINK
CUT[GUTE NACHT UND FROEHLICH LEBEN]
REG[Europa, Mitteleuropa, Deutschland]
KEY[F0772  16  G 4/4]
MEL[5_3_  1__.3_2__.4_  4__3__0__
    3_.4  5__.3_6_5_4_3_  3__2__0__
    +2_7_  5__.7_6__.+1_  +1__7__0__
    2_2_  3__+1_6_5__4#__  5___0__
    5_5_  +1_7_6_5_+1_7_6_5_  5_4_4__0__
    3_4_  5__.3_6_5_4_3_  3__2__0__
    5_.6  5__.3_5_4_3_4_  5_3_1__0__
    1_3_  3_2_4_2_2_1_1_-7_  1___0__ //] >>
FCT[Geselligkeits -, Tageszeiten - Lied, Abend; Abschied]
